img/header/navigation/icon-shop.svg

<svg width="17" height="36" viewBox="0 0 17 36" fill="none" xmlns="http://www.w3.org/2000/svg">
<path fill-rule="evenodd" clip-rule="evenodd" d="M1 16.7181C1 6.14777 6.42166 0.444908 8.63885 0.444458C10.8563 0.444908 16.2777 6.14741 16.2777 16.7181C16.2777 27.3984 11.5346 34.6389 11.3333 34.942L11.1371 35.2366H6.14063L5.94444 34.942C5.74311 34.6388 1 27.3984 1 16.7181ZM7.94466 1.93435V1.93429L7.9448 1.93426L7.94466 1.93435ZM7.94466 1.93435V19.5242H9.33355V1.93429C11.1113 3.21656 14.8891 7.88141 14.8891 16.7182C14.8891 19.6671 14.5054 22.3579 13.9585 24.7078C13.1547 23.7833 11.6773 22.5249 8.98475 21.2819C2.43809 18.2586 2.51764 14.1072 2.52298 13.9319H2.52124C3.20353 6.88817 6.3648 3.07512 7.94466 1.93435ZM2.5248 19.6605C2.46577 18.9955 2.43105 18.3137 2.41195 17.6193C3.40505 19.1105 5.16716 20.8121 8.29533 22.2571C12.7407 24.3104 13.5018 26.3413 13.5209 26.3925L13.5211 26.393C13.1808 27.5939 12.8076 28.684 12.4343 29.6436C11.8492 28.806 10.818 27.7763 8.9968 26.8995C3.51235 24.2606 2.64613 20.4319 2.5248 19.6605ZM9.33347 34.1146H10.2936L10.2934 34.1143C10.5694 33.6542 11.1284 32.6693 11.7639 31.2524C11.6284 30.7852 10.9792 29.1592 8.28471 27.8629C5.83515 26.6832 4.22404 25.2789 3.15982 23.9629C4.29698 29.3462 6.35951 33.0736 6.98449 34.1146H7.94458V30.1862H9.33347V34.1146Z" fill="white"/>
<path d="M8.63885 0.444458L8.63887 0.319458L8.63882 0.319458L8.63885 0.444458ZM11.3333 34.942L11.4373 35.0112L11.4374 35.0111L11.3333 34.942ZM11.1371 35.2366V35.3616H11.204L11.2411 35.3058L11.1371 35.2366ZM6.14063 35.2366L6.03658 35.3058L6.07369 35.3616H6.14063V35.2366ZM5.94444 34.942L5.84032 35.0111L5.8404 35.0112L5.94444 34.942ZM7.94466 1.93429L7.91156 1.81376L7.81966 1.83899V1.93429H7.94466ZM7.9448 1.93426L8.01795 2.03562L7.91169 1.81372L7.9448 1.93426ZM7.94466 19.5242H7.81966V19.6492H7.94466V19.5242ZM9.33355 19.5242V19.6492H9.45855V19.5242H9.33355ZM9.33355 1.93429L9.40668 1.83291L9.20855 1.69001V1.93429H9.33355ZM13.9585 24.7078L13.8642 24.7898L14.0248 24.9745L14.0803 24.7361L13.9585 24.7078ZM8.98475 21.2819L8.93235 21.3953L8.93236 21.3954L8.98475 21.2819ZM2.52298 13.9319L2.64792 13.9357L2.65184 13.8069H2.52298V13.9319ZM2.52124 13.9319L2.39682 13.9199L2.38355 14.0569H2.52124V13.9319ZM2.41195 17.6193L2.51599 17.55L2.27505 17.1882L2.287 17.6227L2.41195 17.6193ZM2.5248 19.6605L2.4 19.6716L2.40131 19.6799L2.5248 19.6605ZM8.29533 22.2571L8.24291 22.3705L8.24291 22.3705L8.29533 22.2571ZM13.5209 26.3925L13.638 26.3487L13.638 26.3486L13.5209 26.3925ZM13.5211 26.393L13.6414 26.4271L13.6526 26.3876L13.6382 26.3491L13.5211 26.393ZM12.4343 29.6436L12.3318 29.7151L12.4659 29.9071L12.5508 29.6889L12.4343 29.6436ZM8.9968 26.8995L9.05102 26.7868L9.05099 26.7868L8.9968 26.8995ZM10.2936 34.1146V34.2396H10.5353L10.3956 34.0423L10.2936 34.1146ZM9.33347 34.1146H9.20847V34.2396H9.33347V34.1146ZM10.2934 34.1143L10.1862 34.05L10.1442 34.12L10.1914 34.1866L10.2934 34.1143ZM11.7639 31.2524L11.8779 31.3035L11.8967 31.2616L11.8839 31.2176L11.7639 31.2524ZM8.28471 27.8629L8.23047 27.9755L8.23052 27.9756L8.28471 27.8629ZM3.15982 23.9629L3.25701 23.8843L3.03752 23.9888L3.15982 23.9629ZM6.98449 34.1146L6.87732 34.1789L6.91374 34.2396H6.98449V34.1146ZM7.94458 34.1146V34.2396H8.06958V34.1146H7.94458ZM7.94458 30.1862V30.0612H7.81958V30.1862H7.94458ZM9.33347 30.1862H9.45847V30.0612H9.33347V30.1862ZM8.63882 0.319458C8.03917 0.31958 7.25574 0.700108 6.42876 1.40587C5.59654 2.1161 4.70255 3.17052 3.88052 4.55372C2.23598 7.32094 0.875 11.4115 0.875 16.7181H1.125C1.125 11.4544 2.47485 7.40834 4.09544 4.68144C4.90597 3.31757 5.78312 2.28554 6.59105 1.59603C7.40421 0.902059 8.12993 0.569561 8.63887 0.569458L8.63882 0.319458ZM16.4027 16.7181C16.4027 11.4113 15.0418 7.32076 13.3973 4.55358C12.5753 3.1704 11.6813 2.11602 10.8491 1.40582C10.0221 0.70008 9.2386 0.31958 8.63887 0.319458L8.63882 0.569458C9.14785 0.569561 9.87361 0.902042 10.6868 1.59599C11.4947 2.28546 12.3719 3.31746 13.1824 4.6813C14.8029 7.40816 16.1527 11.4542 16.1527 16.7181H16.4027ZM11.4374 35.0111C11.6448 34.699 16.4027 27.4338 16.4027 16.7181H16.1527C16.1527 27.363 11.4245 34.5789 11.2291 34.8728L11.4374 35.0111ZM11.2411 35.3058L11.4373 35.0112L11.2292 34.8727L11.033 35.1673L11.2411 35.3058ZM6.14063 35.3616H11.1371V35.1116H6.14063V35.3616ZM5.8404 35.0112L6.03658 35.3058L6.24467 35.1673L6.04849 34.8727L5.8404 35.0112ZM0.875 16.7181C0.875 27.4339 5.63294 34.6989 5.84032 35.0111L6.04857 34.8728C5.85329 34.5788 1.125 27.363 1.125 16.7181H0.875ZM7.81966 1.93429V1.93435H8.06966V1.93429H7.81966ZM7.91169 1.81372L7.91156 1.81376L7.97777 2.05483L7.9779 2.05479L7.91169 1.81372ZM8.01782 2.03571L8.01795 2.03562L7.87164 1.8329L7.87151 1.83299L8.01782 2.03571ZM8.06966 19.5242V1.93435H7.81966V19.5242H8.06966ZM9.33355 19.3992H7.94466V19.6492H9.33355V19.3992ZM9.20855 1.93429V19.5242H9.45855V1.93429H9.20855ZM15.0141 16.7182C15.0141 7.84614 11.2208 3.1414 9.40668 1.83291L9.26043 2.03567C11.0019 3.29171 14.7641 7.91667 14.7641 16.7182H15.0141ZM14.0803 24.7361C14.629 22.3783 15.0141 19.678 15.0141 16.7182H14.7641C14.7641 19.6563 14.3818 22.3375 13.8368 24.6795L14.0803 24.7361ZM8.93236 21.3954C11.6114 22.6321 13.0737 23.8806 13.8642 24.7898L14.0529 24.6258C13.2357 23.686 11.7432 22.4176 9.03715 21.1684L8.93236 21.3954ZM2.39803 13.9281C2.39489 14.0315 2.37599 15.137 3.18757 16.5995C3.99974 18.0631 5.63794 19.874 8.93235 21.3953L9.03716 21.1684C5.7849 19.6665 4.18954 17.8899 3.40616 16.4782C2.62219 15.0654 2.64573 14.0076 2.64792 13.9357L2.39803 13.9281ZM2.52124 14.0569H2.52298V13.8069H2.52124V14.0569ZM7.87149 1.83301C6.25911 2.99725 3.08215 6.84477 2.39682 13.9199L2.64566 13.944C3.32491 6.93156 6.47049 3.15298 8.01784 2.03569L7.87149 1.83301ZM2.287 17.6227C2.30614 18.319 2.34098 19.0034 2.40029 19.6715L2.64931 19.6494C2.59056 18.9876 2.55595 18.3084 2.5369 17.6159L2.287 17.6227ZM8.34775 22.1436C5.23799 20.7072 3.49482 19.0198 2.51599 17.55L2.30791 17.6886C3.31527 19.2012 5.09632 20.9171 8.24291 22.3705L8.34775 22.1436ZM13.638 26.3486C13.6059 26.263 12.8192 24.2089 8.34775 22.1436L8.24291 22.3705C12.6621 24.4118 13.3976 26.4197 13.4039 26.4364L13.638 26.3486ZM13.6382 26.3491L13.638 26.3487L13.4039 26.4363L13.404 26.4368L13.6382 26.3491ZM12.5508 29.6889C12.9254 28.7257 13.3 27.6319 13.6414 26.4271L13.4008 26.3589C13.0617 27.5559 12.6897 28.6422 12.3178 29.5982L12.5508 29.6889ZM8.94257 27.0121C10.745 27.8799 11.7594 28.8957 12.3318 29.7151L12.5368 29.572C11.9391 28.7163 10.891 27.6727 9.05102 26.7868L8.94257 27.0121ZM2.40131 19.6799C2.52738 20.4814 3.41251 24.3512 8.9426 27.0121L9.05099 26.7868C3.61219 24.1699 2.76488 20.3824 2.64828 19.6411L2.40131 19.6799ZM10.2936 33.9896H9.33347V34.2396H10.2936V33.9896ZM10.1914 34.1866L10.1916 34.1868L10.3956 34.0423L10.3954 34.0421L10.1914 34.1866ZM11.6498 31.2012C11.0167 32.613 10.4601 33.5934 10.1862 34.05L10.4006 34.1786C10.6788 33.7149 11.2402 32.7256 11.8779 31.3035L11.6498 31.2012ZM8.23052 27.9756C10.8907 29.2554 11.5176 30.8517 11.6438 31.2872L11.8839 31.2176C11.7393 30.7187 11.0676 29.063 8.3389 27.7503L8.23052 27.9756ZM3.06263 24.0415C4.13877 25.3722 5.76468 26.788 8.23047 27.9755L8.33895 27.7503C5.90562 26.5784 4.30932 25.1855 3.25701 23.8843L3.06263 24.0415ZM7.09166 34.0502C6.47132 33.017 4.41555 29.3027 3.28212 23.9371L3.03752 23.9888C4.1784 29.3897 6.2477 33.1302 6.87732 34.1789L7.09166 34.0502ZM7.94458 33.9896H6.98449V34.2396H7.94458V33.9896ZM7.81958 30.1862V34.1146H8.06958V30.1862H7.81958ZM9.33347 30.0612H7.94458V30.3112H9.33347V30.0612ZM9.45847 34.1146V30.1862H9.20847V34.1146H9.45847Z" fill="black"/>
</svg>

<svg width="17" height="36" fill="none" xmlns="http://www.w3.org/2000/svg"><path fill-rule="evenodd" clip-rule="evenodd" d="M1 16.718C1 6.148 6.422.445 8.639.444c2.217 0 7.639 5.703 7.639 16.274 0 10.68-4.743 17.92-4.945 18.224l-.196.295H6.141l-.197-.295C5.744 34.639 1 27.398 1 16.718zM7.945 1.934zm0 0v17.59h1.389V1.934c1.777 1.283 5.555 5.947 5.555 14.784 0 2.95-.384 5.64-.93 7.99-.804-.925-2.282-2.183-4.974-3.426-6.547-3.023-6.467-7.175-6.462-7.35h-.002C3.204 6.888 6.365 3.075 7.945 1.934zm-5.42 17.727a33.579 33.579 0 01-.113-2.042c.993 1.491 2.755 3.193 5.883 4.638 4.446 2.053 5.207 4.084 5.226 4.135v.001a36.26 36.26 0 01-1.087 3.25c-.585-.837-1.616-1.867-3.437-2.744-5.485-2.638-6.35-6.467-6.472-7.239zm6.808 14.454h.96c.276-.46.835-1.446 1.47-2.863-.135-.467-.784-2.093-3.478-3.39-2.45-1.179-4.061-2.583-5.125-3.9 1.137 5.384 3.2 9.112 3.824 10.153h.96v-3.929h1.39v3.929z" fill="#fff"/><path d="M8.639.444V.32v.125zm2.694 34.498l.104.07-.104-.07zm-.196.295v.125h.067l.037-.056-.104-.07zm-4.996 0l-.104.069.037.056h.067v-.125zm-.197-.295l-.104.07.104-.07zm2-33.008l-.032-.12-.092.025v.095h.125zm0 0l.074.102-.106-.222.033.12zm0 17.59H7.82v.125h.125v-.125zm1.39 0v.125h.125v-.125h-.125zm0-17.59l.073-.101-.198-.143v.244h.125zm4.625 22.774l-.095.082.16.184.056-.238-.121-.028zm-4.974-3.426l-.053.113.053-.113zm-6.462-7.35l.125.004.004-.13h-.129v.126zm-.002 0l-.124-.012-.013.137h.137v-.125zm-.109 3.687l.104-.069-.241-.362.012.435.125-.004zm.113 2.041l-.125.012.001.008.124-.02zm5.77 2.597l-.052.113.052-.113zm5.226 4.135l.117-.043-.117.043zm0 .001l.12.034.012-.04-.015-.038-.117.044zm-1.087 3.25l-.102.072.134.192.085-.218-.117-.045zM8.997 26.9l.054-.112-.054.113zm1.297 7.216v.125h.241l-.14-.198-.101.073zm-.96 0h-.126v.125h.125v-.125zm.96 0l-.108-.065-.042.07.047.067.102-.073zm1.47-2.863l.114.052.019-.042-.013-.044-.12.034zm-3.48-3.39l-.054.114.055-.113zm-5.124-3.9l.097-.078-.22.105.123-.026zm3.824 10.153l-.107.064.037.06h.07v-.124zm.96 0v.125h.126v-.125h-.125zm0-3.929v-.125H7.82v.125h.125zm1.39 0h.124v-.125h-.125v.125zM8.638.32c-.6 0-1.383.381-2.21 1.087-.832.71-1.726 1.765-2.548 3.148C2.236 7.32.875 11.41.875 16.718h.25c0-5.264 1.35-9.31 2.97-12.037.811-1.363 1.688-2.395 2.496-3.085C7.404.902 8.13.57 8.64.569V.32zm7.764 16.4c0-5.308-1.361-9.398-3.006-12.165-.822-1.384-1.716-2.438-2.548-3.148C10.022.7 9.24.32 8.64.319v.25c.509 0 1.235.333 2.048 1.027.808.69 1.685 1.721 2.495 3.085 1.62 2.727 2.97 6.773 2.97 12.037h.25zm-4.965 18.29c.208-.312 4.966-7.577 4.966-18.293h-.25c0 10.645-4.728 17.86-4.924 18.155l.208.138zm-.196.295l.196-.295-.208-.138-.196.294.208.139zm-5.1.056h4.996v-.25H6.141v.25zm-.3-.35l.196.294.208-.139-.197-.294-.208.138zM.874 16.717c0 10.716 4.758 17.98 4.965 18.293l.209-.138c-.196-.294-4.924-7.51-4.924-18.155h-.25zM7.82 1.934h.25-.25zm.092-.12l.066.24-.066-.24zm.106.222l-.146-.203.146.203zm.052 17.488V1.934h-.25v17.59h.25zm1.264-.125h-1.39v.25h1.39v-.25zM9.209 1.934v17.59h.25V1.934h-.25zm5.805 14.784c0-8.872-3.793-13.577-5.607-14.885l-.147.203c1.742 1.256 5.504 5.88 5.504 14.682h.25zm-.934 8.018c.549-2.358.934-5.058.934-8.018h-.25c0 2.938-.382 5.62-.927 7.962l.243.056zm-5.148-3.34c2.68 1.236 4.142 2.485 4.932 3.394l.189-.164c-.817-.94-2.31-2.208-5.016-3.458l-.105.227zm-6.534-7.468c-.003.103-.022 1.209.79 2.671.812 1.464 2.45 3.275 5.744 4.796l.105-.227c-3.252-1.502-4.847-3.278-5.63-4.69-.785-1.413-.761-2.47-.76-2.542l-.249-.008zm.123.129h.002v-.25h-.002v.25zm5.35-12.224C6.26 2.997 3.082 6.845 2.397 13.92l.249.024C3.325 6.932 6.47 3.153 8.018 2.036l-.147-.203zm-5.584 15.79c.02.696.054 1.38.113 2.049l.25-.023a33.453 33.453 0 01-.113-2.033l-.25.007zm6.06 4.52c-3.109-1.436-4.852-3.123-5.831-4.593l-.208.139c1.007 1.512 2.788 3.228 5.935 4.681l.105-.226zm5.291 4.206c-.032-.086-.819-2.14-5.29-4.205l-.105.227c4.42 2.04 5.155 4.049 5.16 4.065l.235-.087zm0 0l-.234.087.234-.087zm-1.087 3.34c.374-.963.749-2.057 1.09-3.262l-.24-.068a36.103 36.103 0 01-1.083 3.24l.233.09zm-3.608-2.677c1.802.868 2.816 1.884 3.389 2.703l.205-.143c-.598-.856-1.646-1.9-3.486-2.785l-.108.225zM2.4 19.68c.126.801 1.012 4.671 6.542 7.332l.108-.225c-5.439-2.617-6.286-6.405-6.403-7.146l-.247.039zm7.893 14.31h-.96v.25h.96v-.25zm-.103.197l.205-.145-.205.145zm1.46-2.987a27.6 27.6 0 01-1.464 2.849l.215.129a27.73 27.73 0 001.477-2.876l-.228-.102zm-3.42-3.225c2.66 1.28 3.288 2.876 3.414 3.311l.24-.07c-.145-.498-.816-2.154-3.545-3.467l-.108.226zm-5.167-3.934c1.076 1.33 2.702 2.746 5.167 3.933l.109-.225c-2.433-1.172-4.03-2.564-5.082-3.866l-.194.157zM7.092 34.05c-.62-1.033-2.676-4.747-3.81-10.113l-.244.052c1.14 5.4 3.21 9.141 3.84 10.19l.214-.129zm.853-.06h-.96v.25h.96v-.25zm-.125-3.804v3.929h.25v-3.929h-.25zm1.513-.125H7.945v.25h1.388v-.25zm.125 4.054v-3.929h-.25v3.929h.25z" fill="#000"/></svg>
